X: 1
T: Stan Chapman's
C: Jerry Holland
M: 6/8
L: 1/8
Z: 1997 by John Chambers <jc:trillian.mit.edu>
K: A
   F \
| "A"E3 EFA | "E"B3 Bce | "A"fea fec | ecA "E"BAF \
| "A"E3 EFA | "E"B3 Bce | "A"fea fec | "E"ecA "A"A2 :|
   f \
| "A"e2e ecA | "D"f2f fga | "A"fec "E"BAB | "F#m"cAF "D"F2f \
| "A"e2e ecA | "D"f2f fga | "A"fec "E"BAB | "A"cAA A2 |]
   f \
| "A"e2e ecA | "D"f2f fga | "A"fec "E"BAB | "F#m"cAF "D"F2f \
| "A"ecA ecA | "D"fdf fga | "A"fec "E"BAB | "A"cAA A2 |]
